categories/scalable/applications-office.svg

<svg width="48" version="1.0" xmlns="http://www.w3.org/2000/svg" height="48">
<g style="stroke:none;color:#000" id="layer1">
<g style="text-decoration-color:#000000;line-height:normal;text-transform:none;stroke-width:3;solid-color:#000000;color-interpolation:sRGB;color-rendering:auto;text-indent:0;text-align:start;text-rendering:auto;font-family:sans-serif;isolation:auto;shape-rendering:auto;mix-blend-mode:normal;white-space:normal;text-decoration-style:solid;image-rendering:auto;solid-opacity:1;text-decoration-line:none">
<path style="color-interpolation-filters:linearRGB;fill:#9c9c9c" id="path4140" d="m 25.7344,11.8848 c -3.79146,0 -7.23185,0.680363 -9.85742,1.875 -1.31278,0.597318 -2.42888,1.32179 -3.27539,2.23242 -0.846514,0.910634 -1.42773,2.06993 -1.42773,3.33594 0,0.32395 0.03883,0.620366 0.09766,0.898437 l -.0273,-.1777 c 0.460809,5.15899 2.03098,15.4203 2.94726,22.0176 l .0059,.043 .0078,.041 c 0.426191,2.14963 2.32272,3.4281 4.42383,4.19727 2.10111,0.769162 4.62863,1.11135 7.1582,1.10742 2.52957,-0.0039 5.04704,-0.352603 7.13281,-1.125 2.08577,-0.772397 3.9701,-2.05925 4.34961,-4.21094 l .0059,-.0293 2.9434,-21.9434 -.0234,.1289 c 0.0622,-0.2786 0.05888,-0.413859 0.05664,-0.396485 0.01329,-0.103142 0.04492,-0.283866 0.04492,-0.550781 0,-1.26601 -0.581219,-2.4253 -1.42773,-3.33594 -0.846515,-0.910635 -1.96261,-1.6351 -3.27539,-2.23242 -2.62557,-1.19464 -6.06792,-1.875 -9.85938,-1.875 z "/>
<path style="color-interpolation-filters:linearRGB;fill:#fff" id="path5030" d="m 25.7344,14.8848 c 3.42261,0 6.51324,0.649059 8.61523,1.60547 1.051,0.478205 1.84682,1.03347 2.32227,1.54492 0.475442,0.511455 0.625,0.917787 0.625,1.29297 0,-0.02973 -0.0027,0.03541 -0.01953,0.166016 -0.02424,0.187976 -0.03432,0.236952 -0.0098,0.126953 l -.0137,.0625 -2.9395,21.9199 c -0.101623,0.563427 -0.832911,1.31862 -2.43555,1.91211 -1.60565,0.594601 -3.8541,0.935965 -6.09766,0.939453 -2.24356,0.0035 -4.49813,-0.329702 -6.12109,-0.923828 -1.61634,-0.591712 -2.38296,-1.36056 -2.50583,-1.95508 -0.923284,-6.6409 -2.48543,-16.9087 -2.92188,-21.7949 l -.0078,-.0898 -.0195,-.0859 c -0.02143,-0.101293 -0.03125,-0.212354 -0.03125,-0.277344 0,-0.375182 0.149558,-0.781514 0.625,-1.29297 0.475442,-0.511455 1.27127,-1.06672 2.32227,-1.54492 2.10199,-0.956409 5.19067,-1.60547 8.61328,-1.60547 z "/>
</g>
<g style="fill-rule:evenodd">
<path style="fill:#2371dc" id="path2960" d="m 40.8382,1 -5.2154,5.2737 -8.4681,18.0525 c 1.17276,1.86289 2.23592,3.63148 3.11757,5.24451 l 9.6627,-21.1118 z  m -17.1327,30.2957 -2.3303,4.493 c -1.14949,3.03625 3.18996,4.81541 4.69093,2.12694 l 1.4271,-2.7739 -.3205,.2331 c -0.15885,-8.60994 -1.33319,-10.0015 -2.56398,-11.5379 z "/>
<path style="fill:#f23d0d" id="path3849" d="m 7.827,1.8449 c -0.045089,0.00597 -0.10486,0.045354 -0.145681,0.058272 -0.013371,0.0047 -0.045387,-0.00549 -0.058272,0 -0.018955,0.0088 -0.069554,0.04769 -0.087409,0.058272 -0.00568,0.00393 -0.02358,0.025025 -0.029136,0.029136 -0.016261,0.012896 -0.072417,0.014572 -0.087409,0.029136 -0.00972,0.010073 -0.019981,0.047463 -0.029136,0.058272 -0.026637,0.03352 -0.065731,0.105691 -0.087409,0.145681 -0.00699,0.013684 -0.022731,0.043881 -0.029136,0.058272 -0.015328,0.036854 -0.017183,0.104489 -0.029136,0.145681 -0.00447,0.016819 -0.025164,0.040771 -0.029136,0.058272 -0.00373,0.017841 -0.025957,0.068893 -0.029136,0.087409 -0.327441,2.12072 2.70659,8.49316 7.42973,15.3548 0.293884,0.426944 0.579867,0.840281 0.874085,1.25286 0.696515,0.97671 1.41257,1.91398 2.09781,2.79707 l .0874,-.0583 c 0.343211,0.513595 0.6613,1.02345 1.01977,1.54422 0.348309,0.506008 0.701865,0.995822 1.0489,1.48595 2.74282,3.87368 5.43847,7.23332 7.66282,9.64408 l .3205,-.2331 c 2.04924,2.6625 4.61906,4.06308 4.80747,3.93339 0.16874,-0.116151 -0.20755,-3.02434 -1.95212,-5.88551 l .437,-.2914 c -1.64219,-3.31025 -4.21204,-7.58629 -7.31319,-12.0915 -0.360028,-0.523036 -0.71928,-1.00901 -1.07804,-1.51508 -0.825358,-1.35892 -1.72005,-2.78708 -2.70966,-4.22475 -4.72314,-6.86161 -9.61489,-11.9607 -11.7128,-12.412 -0.018432,-0.00365 -0.069424,0.0029 -0.087409,-6.66134e-16 -0.017771,-0.00254 -0.040949,-0.027345 -0.058272,-0.029136 -0.042739,-0.00354 -0.105783,-0.00117 -0.145681,0 -0.015729,0.0008447 -0.072146,-0.0016 -0.087409,0 z "/>
</g>
</g>
</svg>

<svg width="48" version="1.0" xmlns="http://www.w3.org/2000/svg" height="48">
<path style="fill:#9c9c9c;color-interpolation-filters:linearRGB" id="path4140" d="m 25.7344,11.8848 c -3.79146,0 -7.23185,0.680363 -9.85742,1.875 -1.31278,0.597318 -2.42888,1.32179 -3.27539,2.23242 -0.846514,0.910634 -1.42773,2.06993 -1.42773,3.33594 0,0.32395 0.03883,0.620366 0.09766,0.898437 l -.0273,-.1777 c 0.460809,5.15899 2.03098,15.4203 2.94726,22.0176 l .0059,.043 .0078,.041 c 0.426191,2.14963 2.32272,3.4281 4.42383,4.19727 2.10111,0.769162 4.62863,1.11135 7.1582,1.10742 2.52957,-0.0039 5.04704,-0.352603 7.13281,-1.125 2.08577,-0.772397 3.9701,-2.05925 4.34961,-4.21094 l .0059,-.0293 2.9434,-21.9434 -.0234,.1289 c 0.0622,-0.2786 0.05888,-0.413859 0.05664,-0.396485 0.01329,-0.103142 0.04492,-0.283866 0.04492,-0.550781 0,-1.26601 -0.581219,-2.4253 -1.42773,-3.33594 -0.846515,-0.910635 -1.96261,-1.6351 -3.27539,-2.23242 -2.62557,-1.19464 -6.06792,-1.875 -9.85938,-1.875 z "/>
<path style="fill:#fff;color-interpolation-filters:linearRGB" id="path5030" d="m 25.7344,14.8848 c 3.42261,0 6.51324,0.649059 8.61523,1.60547 1.051,0.478205 1.84682,1.03347 2.32227,1.54492 0.475442,0.511455 0.625,0.917787 0.625,1.29297 0,-0.02973 -0.0027,0.03541 -0.01953,0.166016 -0.02424,0.187976 -0.03432,0.236952 -0.0098,0.126953 l -.0137,.0625 -2.9395,21.9199 c -0.101623,0.563427 -0.832911,1.31862 -2.43555,1.91211 -1.60565,0.594601 -3.8541,0.935965 -6.09766,0.939453 -2.24356,0.0035 -4.49813,-0.329702 -6.12109,-0.923828 -1.61634,-0.591712 -2.38296,-1.36056 -2.50583,-1.95508 -0.923284,-6.6409 -2.48543,-16.9087 -2.92188,-21.7949 l -.0078,-.0898 -.0195,-.0859 c -0.02143,-0.101293 -0.03125,-0.212354 -0.03125,-0.277344 0,-0.375182 0.149558,-0.781514 0.625,-1.29297 0.475442,-0.511455 1.27127,-1.06672 2.32227,-1.54492 2.10199,-0.956409 5.19067,-1.60547 8.61328,-1.60547 z "/>
<g style="fill-rule:evenodd" id="g11">
<g style="fill:#2371dc" id="g8">
<path id="path4487" d="m 41.0236,1.1486 -5.1417,5.2399 -8.8968,18.0687 c 1.17276,1.86289 2.35757,3.71246 3.23922,5.32549 l 9.9701,-21.2087 z "/>
<path id="path2960" d="m 23.8441,30.9067 -.3301,.6523 -2.139,4.23 c -1.14949,3.03625 3.19044,4.81542 4.69141,2.12695 l 1.3518,-2.4086 .3457,-.6465 c -0.03716,-0.04705 -0.07644,-0.0869 -0.113282,-0.134766 l -.3203,.2324 c -1.03401,-1.12066 -2.29106,-2.56477 -3.48614,-4.05184 z "/>
</g>
<path style="fill:#f23d0d" id="path3849" d="M 7.827,1.8449 C 7.781911,1.85087 7.72214,1.890254 7.681319,1.903172 c -0.013371,0.0047 -0.045387,-0.00549 -0.058272,0 C 7.604092,1.911972 7.553493,1.950862 7.535638,1.961444 7.529958,1.965374 7.512058,1.986469 7.506502,1.99058 7.490241,2.003476 7.434085,2.005152 7.419093,2.019716 7.409373,2.029789 7.399112,2.067179 7.389957,2.077988 7.36332,2.111508 7.324226,2.183679 7.302548,2.223669 7.295558,2.237353 7.279817,2.26755 7.273412,2.281941 7.258084,2.318795 7.256229,2.38643 7.244276,2.427622 7.239806,2.444441 7.219112,2.468393 7.21514,2.485894 7.21141,2.503735 7.189183,2.554787 7.186004,2.573303 c -0.327441,2.12072 2.70659,8.49316 7.42973,15.3548 0.293884,0.426944 0.579867,0.840281 0.874085,1.25286 0.696515,0.97671 1.41257,1.91398 2.09781,2.79707 l 0.0874,-0.0583 c 0.343211,0.513595 0.6613,1.02345 1.01977,1.54422 0.348309,0.506008 0.701865,0.995822 1.0489,1.48595 2.74282,3.87368 5.43847,7.23332 7.66282,9.64408 l 0.3205,-0.2331 c 2.04924,2.6625 4.61906,4.06308 4.80747,3.93339 0.16874,-0.116151 -0.20755,-3.02434 -1.95212,-5.88551 l 0.437,-0.2914 c -1.64219,-3.31025 -4.21204,-7.58629 -7.31319,-12.0915 -0.360028,-0.523036 -0.71928,-1.00901 -1.07804,-1.51508 -0.825358,-1.35892 -1.72005,-2.78708 -2.70966,-4.22475 -4.72314,-6.86161 -9.61489,-11.9607 -11.7128,-12.412 -0.018432,-0.00365 -0.069424,0.0029 -0.087409,0 C 8.100499,1.871493 8.077321,1.846688 8.059998,1.844897 c -0.042739,-0.00354 -0.105783,-0.00117 -0.145681,0 -0.015729,8.447e-4 -0.072146,-0.0016 -0.087409,0 z"/>
</g>
</svg>
